X: 26737
T: Mild Mabel Kelly
R: waltz
M: 3/4
K: Bminor
|:e/d/|B2 B2 Bd|e2 ef ef|ed BA Bd|e2 ef e2|
dc BA FE|D2 DE D2|BA FE FA|B2 Bd B2|
d2 df df|e2 ef ef|fe fa ba|f3 ed2|
dc de fe|de dc BA|F>E DF AF|E2 EF ~E||
E/D/|E2 E2 EF|AF AB A2|AF ED FA|B2 Bd B2|
dc de fe|dB de fa|ba fe df|e2 ef e2|
dc BA F>E|D2 DE D2|BA FE FA|B2 Bd B2|
d2 AF D2|e2 dc BA|F>E DF AF|E2 EF ~E2:|

